communes/56.svg

<?xml version="1.0" encoding="UTF-8" standalone="no"?>
<!-- Created with Inkscape (http://www.inkscape.org/) -->
<svg
   xmlns:svg="http://www.w3.org/2000/svg"
   xmlns="http://www.w3.org/2000/svg"
   xmlns:xlink="http://www.w3.org/1999/xlink"
   version="1.0"
   width="234.58893"
   height="274.78436"
   id="svg2780">
  <defs
     id="defs2782" />
  <g
     transform="translate(-4.3091401,-806.87845)"
     id="layer1">
    <path
       d="M 5.30914,807.87845 L 9.5380252,985.5055 C 12.558649,1112.3819 230.64855,1112.3819 233.66919,985.5055 L 237.89807,807.87845 L 5.30914,807.87845 z "
       style="fill:#c63129;fill-opacity:1;fill-rule:evenodd;stroke:#000000;stroke-width:1.99999988;stroke-linecap:butt;stroke-miterlimit:4;stroke-dashoffset:0;stroke-opacity:1"
       id="path3282" />
    <use
       transform="matrix(-1,0,0,1,243.20721,0)"
       id="use5249"
       x="0"
       y="0"
       width="248.03149"
       height="248.03149"
       xlink:href="#g5242" />
    <g
       transform="matrix(0.7905896,-0.6123464,0.6123464,0.7905896,-772.70654,449.56669)"
       id="g5242">
      <path
         d="M 414.95648,1053.067 C 417.51626,1053.067 422.04326,1050.8899 429.54782,1048.5837 C 437.00465,1046.2922 457.07167,1038.9543 457.94985,1018.8837 C 458.82834,998.80622 440.86439,987.34353 414.95648,987.34353 C 388.87237,987.34353 371.08462,998.80622 371.96311,1018.8837 C 372.84129,1038.9543 392.90831,1046.2922 400.36514,1048.5837 C 407.8697,1050.8899 412.3967,1053.067 414.95648,1053.067 z M 415.30888,1022.7602 C 418.33378,1022.7602 424.6476,1026.8129 421.12355,1034.9181 C 462.8835,1047.6047 451.07795,976.94759 415.30888,1005.3162 C 379.53981,976.94759 367.73426,1047.6047 409.49421,1034.9181 C 405.97016,1026.8129 412.28398,1022.7602 415.30888,1022.7602 z "
         style="fill:#ffffff;fill-opacity:1;fill-rule:evenodd;stroke:#000000;stroke-width:1px;stroke-linecap:butt;stroke-linejoin:miter;stroke-opacity:1"
         id="path3233" />
      <rect
         width="26.606552"
         height="7.4004974"
         rx="3.7002487"
         ry="3.7002487"
         x="401.65305"
         y="974.83319"
         style="opacity:1;color:#000000;fill:#ffffff;fill-opacity:1;fill-rule:evenodd;stroke:#000000;stroke-width:1.00000012px;stroke-linecap:butt;stroke-linejoin:miter;marker:none;marker-start:none;marker-mid:none;marker-end:none;stroke-miterlimit:4;stroke-dasharray:none;stroke-dashoffset:0;stroke-opacity:1;visibility:visible;display:inline;overflow:visible;enable-background:accumulate"
         id="rect3250" />
      <rect
         width="26.606552"
         height="7.4004974"
         rx="3.7002487"
         ry="3.7002487"
         x="401.65305"
         y="982.23364"
         style="opacity:1;color:#000000;fill:#ffffff;fill-opacity:1;fill-rule:evenodd;stroke:#000000;stroke-width:1.00000012px;stroke-linecap:butt;stroke-linejoin:miter;marker:none;marker-start:none;marker-mid:none;marker-end:none;stroke-miterlimit:4;stroke-dasharray:none;stroke-dashoffset:0;stroke-opacity:1;visibility:visible;display:inline;overflow:visible;enable-background:accumulate"
         id="rect3252" />
      <path
         d="M 406.23477,800.15259 L 423.67791,800.15259 L 423.67791,974.83318 L 406.23477,974.83318 L 406.23477,800.15259 z "
         style="color:#000000;fill:#ffffff;fill-opacity:1;fill-rule:evenodd;stroke:#000000;stroke-width:1.00000012px;stroke-linecap:butt;stroke-linejoin:miter;marker:none;marker-start:none;marker-mid:none;marker-end:none;stroke-miterlimit:4;stroke-dashoffset:0;stroke-opacity:1;visibility:visible;display:inline;overflow:visible;enable-background:accumulate"
         id="path4231" />
      <path
         d="M 406.23477,873.86923 L 398.21725,873.86923 L 398.21725,886.37959 L 366.50083,886.37959 L 366.50083,875.98366 L 382.53524,875.98366 L 382.53524,868.58316 L 366.50083,868.58316 L 366.50083,856.9538 L 390.46435,856.9538 L 390.46435,826.99941 L 382.53524,826.99941 L 382.53524,848.49609 L 366.50083,848.49609 L 366.50083,831.58067 L 375.48715,831.58067 L 375.48715,824.18017 L 366.50083,824.18017 L 366.50083,813.07943 L 398.21725,813.07943 L 398.21725,834.92851 L 406.23477,834.92851 L 406.23477,873.86923 z "
         style="color:#000000;fill:#ffffff;fill-opacity:1;fill-rule:evenodd;stroke:#000000;stroke-width:1.00000012px;stroke-linecap:butt;stroke-linejoin:miter;marker:none;marker-start:none;marker-mid:none;marker-end:none;stroke-miterlimit:4;stroke-dashoffset:0;stroke-opacity:1;visibility:visible;display:inline;overflow:visible;enable-background:accumulate"
         id="rect3231" />
    </g>
  </g>
</svg>

<?xml version="1.0" encoding="UTF-8"?>
<svg version="1.0" viewBox="0 0 234.59 274.78" xmlns="http://www.w3.org/2000/svg" xmlns:xlink="http://www.w3.org/1999/xlink">
<g transform="translate(-4.3091 -806.88)">
<path d="m5.3091 807.88 4.2289 177.63c3.0206 126.88 221.11 126.88 224.13 0l4.2289-177.63h-232.59z" fill="#c63129" fill-rule="evenodd" stroke="#000" stroke-width="2"/>
<use transform="matrix(-1 0 0 1 243.21 0)" width="248.03149" height="248.03149" xlink:href="#a"/>
<g id="a" transform="matrix(.79059 -.61235 .61235 .79059 -772.71 449.57)">
<path d="m414.96 1053.1c2.5598 0 7.0868-2.1771 14.591-4.4833 7.4568-2.2915 27.524-9.6294 28.402-29.7 0.87849-20.077-17.085-31.54-42.993-31.54-26.084 0-43.872 11.463-42.993 31.54 0.87818 20.071 20.945 27.408 28.402 29.7 7.5046 2.3062 12.032 4.4833 14.591 4.4833zm0.3524-30.307c3.0249 0 9.3387 4.0527 5.8147 12.158 41.76 12.687 29.954-57.971-5.8147-29.602-35.769-28.369-47.575 42.288-5.8147 29.602-3.524-8.1052 2.7898-12.158 5.8147-12.158z" fill="#fff" fill-rule="evenodd" stroke="#000" stroke-width="1px"/>
<rect x="401.65" y="974.83" width="26.607" height="7.4005" rx="3.7002" ry="3.7002" color="#000000" fill="#fff" fill-rule="evenodd" stroke="#000" stroke-width="1px"/>
<rect x="401.65" y="982.23" width="26.607" height="7.4005" rx="3.7002" ry="3.7002" color="#000000" fill="#fff" fill-rule="evenodd" stroke="#000" stroke-width="1px"/>
<path d="m406.23 800.15h17.443v174.68h-17.443v-174.68z" color="#000000" fill="#fff" fill-rule="evenodd" stroke="#000" stroke-width="1px"/>
<path d="m406.23 873.87h-8.0175v12.51h-31.716v-10.396h16.034v-7.4005h-16.034v-11.629h23.964v-29.954h-7.9291v21.497h-16.034v-16.915h8.9863v-7.4005h-8.9863v-11.101h31.716v21.849h8.0175v38.941z" color="#000000" fill="#fff" fill-rule="evenodd" stroke="#000" stroke-width="1px"/>
</g>
</g>
</svg>
